packages/foundations/assets/icons/functional/images/transportation/bike_32.svg

<svg width="32" height="32" viewBox="0 0 32 32" fill="none" xmlns="http://www.w3.org/2000/svg">
<g clip-path="url(#clip0_187_825)">
<path fill-rule="evenodd" clip-rule="evenodd" d="M24.0745 7.7389C24.1963 8.27793 23.858 8.81362 23.319 8.9354L22.231 9.1804L23.7629 14.0904C24.004 14.0581 24.25 14.0414 24.5 14.0414C27.5376 14.0414 30 16.5038 30 19.5414C29.9967 22.5776 27.5362 25.0381 24.5 25.0414C21.4624 25.0414 19 22.579 19 19.5414C19 17.4597 20.1565 15.6481 21.8621 14.7141L21.427 13.3196L17 19.8484C16.7036 20.2831 16.2111 20.5427 15.685 20.5414L14.8704 20.5347C14.4866 20.49 14.1583 20.2262 14.036 19.8524L12.475 15.0846L11.7164 16.0096C12.5176 16.9651 13 18.1969 13 19.5414C12.9967 22.5776 10.5362 25.0381 7.5 25.0414C4.46243 25.0414 2 22.579 2 19.5414C2 16.5038 4.46243 14.0414 7.5 14.0414C8.47054 14.0414 9.38236 14.2928 10.1739 14.734L11.737 12.8296L10.824 9.95859H10C9.44772 9.95859 9 9.51087 9 8.95859C9 8.4063 9.44772 7.95859 10 7.95859H14C14.5523 7.95859 15 8.4063 15 8.95859C15 9.51087 14.5523 9.95859 14 9.95859H12.928L13.543 11.9226L20.489 10.3096L20 8.7414C19.8655 8.30988 20.0427 7.62481 20.734 7.4684L22.878 6.9834C23.417 6.86162 23.9527 7.19987 24.0745 7.7389ZM24.5 16.0414L24.372 16.0436L25.331 19.1184C25.4101 19.3717 25.3854 19.646 25.2622 19.8811C25.1389 20.1161 24.9273 20.2925 24.674 20.3714C24.5768 20.4012 24.4757 20.4164 24.374 20.4164C23.9373 20.4164 23.551 20.133 23.42 19.7164L22.4762 16.6855C21.5829 17.3196 21 18.3624 21 19.5414C21 21.4744 22.567 23.0414 24.5 23.0414C26.433 23.0414 28 21.4744 28 19.5414C28 17.6084 26.433 16.0414 24.5 16.0414ZM7.5 16.0414C5.567 16.0414 4 17.6084 4 19.5414C4 21.4744 5.567 23.0414 7.5 23.0414C9.433 23.0414 11 21.4744 11 19.5414C11 18.8231 10.7836 18.1553 10.4124 17.5996L8.4 20.0514C8.2095 20.2832 7.92501 20.4171 7.625 20.4164C7.23811 20.4166 6.88582 20.1936 6.72046 19.8438C6.55509 19.4941 6.60633 19.0803 6.852 18.7814L8.87188 16.3205C8.45061 16.1408 7.98691 16.0414 7.5 16.0414ZM19.502 12.5926L14.167 13.8306L15.629 18.3006L19.502 12.5926Z" fill="#1A1C1F"/>
</g>
<defs>
<clipPath id="clip0_187_825">
<rect width="32" height="32" fill="white"/>
</clipPath>
</defs>
</svg>

<svg xmlns="http://www.w3.org/2000/svg" width="32" height="32" fill="none"><g clip-path="url(#a)"><path fill="#1A1C1F" fill-rule="evenodd" d="M24.075 7.739a1 1 0 0 1-.756 1.196l-1.088.245 1.532 4.91q.362-.049.737-.049a5.5 5.5 0 1 1-2.638.673l-.435-1.394L17 19.848a1.59 1.59 0 0 1-1.315.693l-.815-.006a1 1 0 0 1-.834-.683l-1.561-4.767-.759.925A5.48 5.48 0 0 1 13 19.54a5.5 5.5 0 1 1-2.826-4.807l1.563-1.904-.913-2.871H10a1 1 0 0 1 0-2h4a1 1 0 1 1 0 2h-1.072l.615 1.964 6.946-1.613L20 8.74c-.134-.431.043-1.116.734-1.273l2.144-.485a1 1 0 0 1 1.197.756m.425 8.302-.128.003.959 3.074a1 1 0 0 1-1.911.598l-.944-3.03a3.5 3.5 0 1 0 2.024-.644m-17 0a3.5 3.5 0 1 0 2.912 1.559L8.4 20.05a1 1 0 1 1-1.548-1.27l2.02-2.46a3.5 3.5 0 0 0-1.372-.28m12.002-3.448-5.335 1.238 1.462 4.47z" clip-rule="evenodd"/></g><defs><clipPath id="a"><path fill="#fff" d="M0 0h32v32H0z"/></clipPath></defs></svg>
